Newaita-dark/apps/scalable/cutegram.svg

<?xml version="1.0" encoding="UTF-8"?>
<svg xmlns="http://www.w3.org/2000/svg" xmlns:xlink="http://www.w3.org/1999/xlink" width="512pt" height="512pt" viewBox="0 0 512 512" version="1.1">
<defs>
<radialGradient id="radial0" gradientUnits="userSpaceOnUse" cx="450.908936" cy="189.579361" fx="450.908936" fy="189.579361" r="21.166656" gradientTransform="matrix(0.00000209386,-1.250119,-1.690741,-0.00000162462,570.518707,1017.525321)">
<stop offset="0" style="stop-color:rgb(0%,0%,0%);stop-opacity:0.313725;"/>
<stop offset="0.222222" style="stop-color:rgb(0%,0%,0%);stop-opacity:0.27451;"/>
<stop offset="1" style="stop-color:rgb(0%,0%,0%);stop-opacity:0;"/>
</radialGradient>
<radialGradient id="radial1" gradientUnits="userSpaceOnUse" cx="450.908936" cy="189.579361" fx="450.908936" fy="189.579361" r="21.166656" gradientTransform="matrix(-0.00000209386,1.250119,1.690741,0.00000162462,-62.47014,-120.439662)">
<stop offset="0" style="stop-color:rgb(0%,0%,0%);stop-opacity:0.313725;"/>
<stop offset="0.222222" style="stop-color:rgb(0%,0%,0%);stop-opacity:0.27451;"/>
<stop offset="1" style="stop-color:rgb(0%,0%,0%);stop-opacity:0;"/>
</radialGradient>
<radialGradient id="radial2" gradientUnits="userSpaceOnUse" cx="450.908936" cy="189.579361" fx="450.908936" fy="189.579361" r="21.166656" gradientTransform="matrix(-0.00000209386,-1.250119,1.690741,-0.00000162462,-62.47014,1017.525321)">
<stop offset="0" style="stop-color:rgb(0%,0%,0%);stop-opacity:0.313725;"/>
<stop offset="0.222222" style="stop-color:rgb(0%,0%,0%);stop-opacity:0.27451;"/>
<stop offset="1" style="stop-color:rgb(0%,0%,0%);stop-opacity:0;"/>
</radialGradient>
<radialGradient id="radial3" gradientUnits="userSpaceOnUse" cx="450.908936" cy="189.579361" fx="450.908936" fy="189.579361" r="21.166656" gradientTransform="matrix(0.00000209386,1.250119,-1.690741,0.00000162462,570.518684,-120.43967)">
<stop offset="0" style="stop-color:rgb(0%,0%,0%);stop-opacity:0.313725;"/>
<stop offset="0.222222" style="stop-color:rgb(0%,0%,0%);stop-opacity:0.27451;"/>
<stop offset="1" style="stop-color:rgb(0%,0%,0%);stop-opacity:0;"/>
</radialGradient>
<linearGradient id="linear0" gradientUnits="userSpaceOnUse" x1="254" y1="233.5" x2="254" y2="-168.666672" gradientTransform="matrix(1.000095,0,0,1.000095,0,215.020531)">
<stop offset="0" style="stop-color:rgb(89.803922%,45.098039%,45.098039%);stop-opacity:1;"/>
<stop offset="1" style="stop-color:rgb(93.72549%,60.392157%,60.392157%);stop-opacity:1;"/>
</linearGradient>
</defs>
<g id="surface1">
<path style=" stroke:none;fill-rule:nonzero;fill:url(#radial0);" d="M 253.964844 448.542969 L 285.777344 448.542969 L 285.777344 427.375 L 253.964844 427.375 Z M 253.964844 448.542969 "/>
<path style=" stroke:none;fill-rule:nonzero;fill:url(#radial1);" d="M 254.082031 448.542969 L 222.269531 448.542969 L 222.269531 469.710938 L 254.082031 469.710938 Z M 254.082031 448.542969 "/>
<path style=" stroke:none;fill-rule:nonzero;fill:url(#radial2);" d="M 254.082031 448.542969 L 222.269531 448.542969 L 222.269531 427.375 L 254.082031 427.375 Z M 254.082031 448.542969 "/>
<path style=" stroke:none;fill-rule:nonzero;fill:url(#radial3);" d="M 253.964844 448.542969 L 285.777344 448.542969 L 285.777344 469.710938 L 253.964844 469.710938 Z M 253.964844 448.542969 "/>
<path style=" stroke:none;fill-rule:nonzero;fill:url(#linear0);" d="M 253.960938 46.34375 C 250.027344 46.367188 246.429688 48.574219 244.625 52.070312 L 75.273438 380.183594 C 71.9375 386.652344 75.976562 394.476562 83.179688 395.507812 L 226.679688 416.007812 L 245.222656 443.824219 C 249.410156 450.105469 258.636719 450.105469 262.824219 443.824219 L 281.371094 416.007812 L 424.871094 395.507812 C 432.074219 394.476562 436.109375 386.652344 432.773438 380.183594 L 263.421875 52.070312 C 261.597656 48.535156 257.941406 46.320312 253.960938 46.34375 Z M 253.960938 46.34375 "/>
<path style=" stroke:none;fill-rule:nonzero;fill:rgb(100%,100%,100%);fill-opacity:0.235294;" d="M 253.960938 46.34375 C 250.027344 46.367188 246.429688 48.574219 244.625 52.070312 L 75.273438 380.183594 C 73.523438 383.578125 73.804688 387.347656 75.507812 390.308594 L 244.625 62.648438 C 246.429688 59.152344 250.027344 56.945312 253.960938 56.921875 C 257.941406 56.898438 261.597656 59.109375 263.421875 62.648438 L 432.539062 390.308594 C 434.242188 387.347656 434.523438 383.578125 432.773438 380.183594 L 263.421875 52.070312 C 261.597656 48.535156 257.941406 46.320312 253.960938 46.34375 Z M 253.960938 46.34375 "/>
<path style=" stroke:none;fill-rule:nonzero;fill:rgb(71.764708%,10.980392%,10.980392%);fill-opacity:0.235294;" d="M 254.023438 46.335938 L 226.972656 416.449219 L 245.222656 443.824219 C 247.316406 446.964844 250.671875 448.535156 254.023438 448.535156 Z M 254.023438 46.335938 "/>
<path style=" stroke:none;fill-rule:nonzero;fill:rgb(83.529413%,0%,0%);fill-opacity:0.117647;" d="M 254.023438 46.335938 L 281.078125 416.449219 L 262.824219 443.824219 C 260.730469 446.964844 257.378906 448.535156 254.023438 448.535156 Z M 254.023438 46.335938 "/>
<path style=" stroke:none;fill-rule:nonzero;fill:rgb(100%,100%,100%);fill-opacity:0.235294;" d="M 248.386719 46.113281 L 248.238281 48.074219 C 249.5625 47.207031 251.074219 46.640625 252.675781 46.433594 Z M 253.585938 56.9375 C 251.292969 57.03125 249.128906 57.863281 247.394531 59.261719 L 221.046875 408.046875 L 226.679688 408.851562 L 226.96875 409.289062 Z M 253.585938 56.9375 "/>
<path style=" stroke:none;fill-rule:nonzero;fill:rgb(100%,100%,100%);fill-opacity:0.235294;" d="M 258.683594 46.113281 L 254.96875 46.390625 C 256.316406 46.511719 257.609375 46.886719 258.789062 47.480469 Z M 253.960938 56.921875 C 253.800781 56.921875 253.644531 56.933594 253.484375 56.941406 L 280.199219 410.605469 L 281.371094 408.851562 L 286.035156 408.183594 L 259.621094 58.527344 C 257.957031 57.488281 256.003906 56.910156 253.960938 56.921875 Z M 253.960938 56.921875 "/>
<path style=" stroke:none;fill-rule:nonzero;fill:rgb(12.941177%,12.941177%,12.941177%);fill-opacity:1;" d="M 253.953125 44.84375 C 249.460938 44.871094 245.351562 47.390625 243.292969 51.382812 L 73.941406 379.496094 C 70.152344 386.839844 74.785156 395.824219 82.964844 396.992188 L 225.800781 417.398438 L 243.972656 444.65625 C 248.726562 451.78125 259.320312 451.78125 264.074219 444.65625 L 282.246094 417.398438 L 425.082031 396.992188 C 433.261719 395.824219 437.894531 386.839844 434.109375 379.496094 L 264.753906 51.382812 C 262.671875 47.347656 258.496094 44.816406 253.953125 44.84375 Z M 253.96875 47.84375 L 253.972656 47.84375 C 257.390625 47.824219 260.523438 49.71875 262.089844 52.757812 L 431.441406 380.871094 C 434.324219 386.460938 430.882812 393.132812 424.65625 394.023438 L 281.15625 414.523438 C 280.734375 414.585938 280.359375 414.820312 280.121094 415.175781 L 261.578125 442.992188 C 257.953125 448.425781 250.09375 448.425781 246.472656 442.992188 L 227.925781 415.175781 C 227.6875 414.820312 227.3125 414.585938 226.890625 414.523438 L 83.390625 394.023438 C 77.164062 393.132812 73.726562 386.460938 76.609375 380.871094 L 76.605469 380.871094 L 245.957031 52.757812 C 247.507812 49.753906 250.589844 47.867188 253.96875 47.84375 Z M 253.96875 47.84375 "/>
<path style=" stroke:none;fill-rule:nonzero;fill:rgb(0%,0%,0%);fill-opacity:0.235294;" d="M 74.722656 381.449219 C 72.472656 387.632812 76.441406 394.542969 83.179688 395.507812 L 226.679688 416.007812 L 245.222656 443.824219 C 249.410156 450.105469 258.636719 450.105469 262.824219 443.824219 L 281.371094 416.007812 L 424.871094 395.507812 C 431.609375 394.542969 435.574219 387.632812 433.328125 381.449219 C 432.0625 384.953125 428.984375 387.761719 424.871094 388.351562 L 281.371094 408.851562 L 262.824219 436.667969 C 258.636719 442.949219 249.410156 442.949219 245.222656 436.667969 L 226.679688 408.851562 L 83.179688 388.351562 C 79.0625 387.761719 75.984375 384.953125 74.722656 381.449219 Z M 74.722656 381.449219 "/>
</g>
</svg>

<svg xmlns="http://www.w3.org/2000/svg" width="512pt" height="512pt" viewBox="0 0 512 512"><defs><radialGradient id="a" gradientUnits="userSpaceOnUse" cx="450.909" cy="189.579" fx="450.909" fy="189.579" r="21.167" gradientTransform="matrix(0 -1.25012 -1.69074 0 570.519 1017.525)"><stop offset="0" stop-opacity=".314"/><stop offset=".222" stop-opacity=".275"/><stop offset="1" stop-opacity="0"/></radialGradient><radialGradient id="b" gradientUnits="userSpaceOnUse" cx="450.909" cy="189.579" fx="450.909" fy="189.579" r="21.167" gradientTransform="matrix(0 1.25012 1.69074 0 -62.47 -120.44)"><stop offset="0" stop-opacity=".314"/><stop offset=".222" stop-opacity=".275"/><stop offset="1" stop-opacity="0"/></radialGradient><radialGradient id="c" gradientUnits="userSpaceOnUse" cx="450.909" cy="189.579" fx="450.909" fy="189.579" r="21.167" gradientTransform="matrix(0 -1.25012 1.69074 0 -62.47 1017.525)"><stop offset="0" stop-opacity=".314"/><stop offset=".222" stop-opacity=".275"/><stop offset="1" stop-opacity="0"/></radialGradient><radialGradient id="d" gradientUnits="userSpaceOnUse" cx="450.909" cy="189.579" fx="450.909" fy="189.579" r="21.167" gradientTransform="matrix(0 1.25012 -1.69074 0 570.519 -120.44)"><stop offset="0" stop-opacity=".314"/><stop offset=".222" stop-opacity=".275"/><stop offset="1" stop-opacity="0"/></radialGradient><linearGradient id="e" gradientUnits="userSpaceOnUse" x1="254" y1="233.5" x2="254" y2="-168.667" gradientTransform="matrix(1.0001 0 0 1.0001 0 215.02)"><stop offset="0" stop-color="#e57373"/><stop offset="1" stop-color="#ef9a9a"/></linearGradient></defs><path d="M253.965 448.543h31.812v-21.168h-31.812zm0 0" fill="url(#a)"/><path d="M254.082 448.543H222.27v21.168h31.812zm0 0" fill="url(#b)"/><path d="M254.082 448.543H222.27v-21.168h31.812zm0 0" fill="url(#c)"/><path d="M253.965 448.543h31.812v21.168h-31.812zm0 0" fill="url(#d)"/><path d="M253.96 46.344a10.58 10.58 0 0 0-9.335 5.726L75.273 380.184c-3.335 6.468.704 14.293 7.907 15.324l143.5 20.5 18.543 27.816c4.187 6.281 13.414 6.281 17.601 0l18.547-27.816 143.5-20.5c7.203-1.031 11.238-8.856 7.902-15.324L263.422 52.07a10.578 10.578 0 0 0-9.461-5.726zm0 0" fill="url(#e)"/><path d="M253.96 46.344a10.58 10.58 0 0 0-9.335 5.726L75.273 380.184c-1.75 3.394-1.468 7.164.235 10.125l169.117-327.66a10.58 10.58 0 0 1 9.336-5.727 10.57 10.57 0 0 1 9.46 5.726l169.118 327.66c1.703-2.96 1.984-6.73.234-10.124L263.422 52.07a10.578 10.578 0 0 0-9.461-5.726zm0 0" fill="#fff" fill-opacity=".235"/><path d="M254.023 46.336l-27.05 370.113 18.25 27.375c2.093 3.14 5.449 4.711 8.8 4.711zm0 0" fill="#b71c1c" fill-opacity=".235"/><path d="M254.023 46.336l27.055 370.113-18.254 27.375c-2.094 3.14-5.445 4.711-8.8 4.711zm0 0" fill="#d50000" fill-opacity=".118"/><path d="M248.387 46.113l-.149 1.961a10.563 10.563 0 0 1 4.438-1.64zm5.199 10.825a10.548 10.548 0 0 0-6.191 2.324l-26.348 348.785 5.633.805.289.437zm0 0" fill="#fff" fill-opacity=".235"/><path d="M258.684 46.113l-3.715.278c1.347.12 2.64.496 3.82 1.09zm-4.723 10.809c-.16 0-.316.012-.477.02L280.2 410.604l1.172-1.753 4.664-.668-26.414-349.657a10.563 10.563 0 0 0-5.66-1.605zm0 0" fill="#fff" fill-opacity=".235"/><path d="M253.953 44.844a12.078 12.078 0 0 0-10.66 6.539L73.941 379.496c-3.789 7.344.844 16.328 9.024 17.496L225.8 417.398l18.172 27.258c4.754 7.125 15.347 7.125 20.101 0l18.172-27.258 142.836-20.406c8.18-1.168 12.813-10.152 9.027-17.496L264.754 51.383a12.078 12.078 0 0 0-10.8-6.54zm.016 3h.004a9.065 9.065 0 0 1 8.117 4.914L431.44 380.87a9.045 9.045 0 0 1-6.785 13.152l-143.5 20.5a1.508 1.508 0 0 0-1.035.653l-18.543 27.816c-3.625 5.434-11.484 5.434-15.105 0l-18.547-27.816a1.508 1.508 0 0 0-1.035-.653l-143.5-20.5c-6.227-.89-9.664-7.562-6.782-13.152h-.004L245.957 52.758a9.077 9.077 0 0 1 8.012-4.914zm0 0" fill="#212121"/><path d="M74.723 381.45c-2.25 6.183 1.718 13.093 8.457 14.058l143.5 20.5 18.543 27.816c4.187 6.281 13.414 6.281 17.601 0l18.547-27.816 143.5-20.5c6.738-.965 10.703-7.875 8.457-14.059-1.265 3.504-4.344 6.313-8.457 6.903l-143.5 20.5-18.547 27.816c-4.187 6.281-13.414 6.281-17.601 0l-18.543-27.816-143.5-20.5c-4.118-.59-7.196-3.399-8.457-6.903zm0 0" fill-opacity=".235"/></svg>
